client/public/game_modes/bouncing_ball/frame11.svg

<svg xmlns="http://www.w3.org/2000/svg" width="437" height="483" fill="none"><path fill="#EDEDED" d="M359 361h20v19h-20v-19Zm-20-20h20v20h-20v-20Zm-39-20h20v20h-20v-20Zm-20-20h20v20h-20v-20Zm20 0h20v20h-20v-20Zm20 40h19v20h-19v-20Zm0-20h19v20h-19v-20Zm-20 20h20v20h-20v-20Zm59 0h20v20h-20v-20Zm-20 20h20v19h-20v-19Z"/><path stroke="#EDEDED" stroke-width="5" d="M359 361h20m-20 0v19m0-19v-20m0 20h-20m40 0v19h-20m20-19v-20h-20m0 39h-20v-19m0-20h20m-20 0v20m0-20h-19m19 0v-20h-19m19 40h-19m-20-40h20m-20 0v20m0-20v-20m0 20h-20v-20h20m20 20v20m0-20v-20h-20m20 40h-20m20 0v20m-20-20v20h20"/><path fill="#949494" d="M219 441h20v20h-20v-20Zm-21 0h21v20h-21v-20Zm41 0h40v20h-40v-20Zm40 0h20v20h-20v-20Z"/><path fill="#949494" d="M239 441h20v20h-20v-20Zm-61 0h20v20h-20v-20Zm-20 0h20v20h-20v-20ZM58 381h20v21H58v-21Zm-20 0h20v21H38v-21Zm-20 0h20v21H18v-21Zm0-21h20v21H18v-21Zm0-20h20v20H18v-20Zm120 82h20v19h-20v-19Zm0 19h20v20h-20v-20Zm-20 0h20v20h-20v-20Zm-20 0h20v20H98v-20Zm0-19h20v19H98v-19Zm-20 0h20v19H78v-19Zm-20 0h20v19H58v-19Zm60 0h20v19h-20v-19Zm-60-20h20v20H58v-20Zm20 0h20v20H78v-20Zm-40 0h20v20H38v-20Zm60 0h20v20H98v-20Zm-60-81h21v19H38v-19Zm281 120h20v20h-20v-20Zm-20 0h20v20h-20v-20Z"/><path stroke="#949494" stroke-width="5" d="M219 441h20m-20 0v20m0-20h-21m41 0v20m0-20h40m-40 0h20v20h-20m0 0h-20m20 0h40m-60 0h-21m0-20v20m0-20h-20m20 20h-20m101-20v20m0-20h20m-20 20h20m0-20v20m0-20h20m-20 20h20m-141-20v20m0-20h-20m20 20h-20m0-20v20m0-20v-19h-20m20 19h-20m20 20h-20m-80-80h20v21m-20-21v21m0-21H38m40 21H58m20 0v20m0-20h20m-40 0H38m20 0v20m-20-41v21m0-21H18m20 0v-21m0 42H18v-21m20 21v20h20m-40-41v-21m0 0h20m-20 0v-20h20m0 20v-20m0 0h21v-19H38v19Zm100 82v19m0-19h-20m20 19v20m0-20h-20m20 20h-20m0-20v20m0-20H98m20 0v-19m0 39H98v-20m0 0v-19m0 19H78m20-19h20m-20 0H78m20 0v-20m20 20v-20H98m-20 20v19m0-19H58m20 19H58v-19m261 19h20v20h-20m0-20v20"/><path fill="#D9D9D9" d="M98 341h20v20H98v-20Zm20 0h20v20h-20v-20Zm-20-20h20v20H98v-20Zm-59 40h20v20H39v-20Zm0-20h20v20H39v-20Zm79 40h20v20h-20v-20Zm20 0h20v20h-20v-20Zm-20 20h20v20h-20v-20Zm-40-20h20v20H78v-20Zm20 0h20v20H98v-20Zm-20-20h20v20H78v-20Zm-19 0h19v20H59v-20Zm0-20h19v20H59v-20Zm0-20h19v20H59v-20Zm19 0h20v20H78v-20Zm-19-20h19v20H59v-20Zm19 0h20v20H78v-20Zm0 40h20v20H78v-20Zm20 20h20v20H98v-20Zm40 40h20v20h-20v-20Zm40 0h20v20h-20v-20Zm20 0h21v20h-21v-20Zm-40 0h20v20h-20v-20Zm61 0h20v20h-20v-20Zm20 0h20v20h-20v-20Zm20 0h20v20h-20v-20Zm-61 20h21v20h-21v-20Zm-20 0h20v20h-20v-20Zm-20 0h20v20h-20v-20Zm221-20h20v20h-20v-20Zm-20 0h20v20h-20v-20Zm40-20h20v20h-20v-20Zm0-21h20v21h-20v-21Zm0-20h20v20h-20v-20Zm-20 41h20v20h-20v-20Zm0-21h20v21h-20v-21Zm0-20h20v20h-20v-20Zm-20-20h20v20h-20v-20Zm-19 0h19v20h-19v-20Zm19-19h20v19h-20v-19Zm-19 0h19v19h-19v-19Zm-20 0h20v19h-20v-19Zm39 80h20v20h-20v-20Zm-60 20h20v20h-20v-20Zm-20 0h20v20h-20v-20Zm40 0h20v20h-20v-20Zm-141-20h20v20h-20v-20Zm20 0h21v20h-21v-20Zm-40 0h20v20h-20v-20Zm61 0h20v20h-20v-20Zm20 0h20v20h-20v-20Zm20 0h20v20h-20v-20Zm40 0h20v20h-20v-20Zm-20 0h20v20h-20v-20Zm40 0h20v20h-20v-20Zm-141-20h20v20h-20v-20Zm20 0h21v20h-21v-20Zm-40 0h20v20h-20v-20Zm61 0h20v20h-20v-20Zm20 0h20v20h-20v-20Zm20 0h20v20h-20v-20Zm40 0h20v20h-20v-20Zm-20 0h20v20h-20v-20Zm40 0h20v20h-20v-20Zm-141-20h20v20h-20v-20Zm20 0h21v20h-21v-20Zm-40 0h20v20h-20v-20Zm61 0h20v20h-20v-20Zm20 0h20v20h-20v-20Zm40 0h20v20h-20v-20Zm0-20h20v20h-20v-20Zm-20-20h20v20h-20v-20Zm-40 0h20v20h-20v-20Zm20 0h20v20h-20v-20Zm20 40h20v20h-20v-20Zm-40-20h20v20h-20v-20Zm20 0h20v20h-20v-20Zm20 0h20v20h-20v-20Zm80 80h20v20h-20v-20Zm0-20h20v20h-20v-20Zm-201-20h20v20h-20v-20Zm0-20h20v20h-20v-20Zm40-20h20v20h-20v-20Zm20 0h21v20h-21v-20Zm-40 0h20v20h-20v-20Zm-20 0h20v20h-20v-20Zm40-20h20v20h-20v-20Zm20 0h21v20h-21v-20Zm-40 0h20v20h-20v-20Zm-20 0h20v20h-20v-20Zm-40 0h20v20H98v-20Zm20 0h20v20h-20v-20Zm-20-20h20v20H98v-20Zm20 0h20v20h-20v-20Zm182 0h20v20h-20v-20Zm20 0h20v20h-20v-20Zm-61 0h20v20h-20v-20Zm20 0h21v20h-21v-20Zm-81 0h21v20h-21v-20Zm21 0h20v20h-20v-20Zm20 0h20v20h-20v-20Zm-61 0h20v20h-20v-20Zm-40 0h20v20h-20v-20Zm20 0h20v20h-20v-20Zm-40 80h20v20h-20v-20Zm0-40h20v20h-20v-20Zm261-1h20v20h-20v-20ZM259 421h20v20h-20v-20Zm-40 0h20v20h-20v-20Zm20 0h20v20h-20v-20Zm120 0h20v20h-20v-20Zm-20 0h20v20h-20v-20Zm-60 0h20v20h-20v-20Zm20 0h20v20h-20v-20Zm20 0h20v20h-20v-20Z"/><path stroke="#D9D9D9" stroke-width="5" d="M98 341h20m-20 0v20m0-20v-20m0 20H78m40 0v20m0-20h20m-20 0v-20m0 40H98m20 0h20m-20 0v20m-20-20H78m20 0v20m40-40v20m0-20h20m-20 0v-20m0 40h20m-20 0v20m-40-60h20m-20 0H78m20 0v-20m20 20v-20m0 20h20m-99 40h20m-20 0v20h20m-20-20v-20h20m0 20v20m0-20v-20m0 20h19m-19 20h19m-19-40h19m-19 0v-20m59 60h20m-20 0v20m0-20H98m40 0v20m0-20h20m-20 20h-20m20 0h20m-20 0v20m-20-20v20h20m-20-20H98m60-20v20m0-20h20m-20 0v-20m0 40v20m0-20h20m-40 20h20m-80-40h20m-20 0v20h20m-20-20v-20m20 20v20m-20-40v-20m0 0v-20m-19 0h19m-19 0v-20h19m0 20v-20m0 0h20m0 0h20m-20 0v-20h20m40 140h20m-20 0v20h20m0-40h20m-20 0v20m0-20v-20m20 20v20m0-20h21m-21 0v-20m0 40h-20m20 0h21m-21 0v20m-20-20v20m41-40v20m0-20h20m-20 0v-20m0 40h20m-20 0v20m20-40v20m0-20h20m-20 0v-20m0 40h20m-20 0v20m20-40v20m0-20h20m-20 0v-20m0 40h20m-20 0v20m20-40v20m0-20h20m-20 0v-20m0 40h20m-20 0v20m-60 0h-21m21 0h20m-41 0h-20m201-40h20m-20 0v20m0-20h-20m20 0v-20m20 20v20h-20m20-20h20v-20m-20 20v-20m-20 40h-20m20 0v20h-20m0-40v20m0-20v-20m0 20h-20m20 20h-20m20 0v20m40-60h20m-20 0v-21m0 21h-20m40 0v-21m-20 0h20m-20 0v-20m0 20h-20m40 0v-20h-20m0 0h-20m20 0v-20h-20m0 61v-21m0 21h-20m20-21v-20m0 0v-20m0 20h-20m0-20h20m-20 0v20m0-20h-19m19 0v-19m20 19v-19h-20m0 39h-19v-20m0 0v-19m0 19h-20v-19m39 0h-19m0 0h-20m20 0v-20h-20m0 20v-20m0 20h-20m59 80h-20m-40 20h20m-20 0v20m0-20v-20m20 20v20m0-20h20m-20 0v-20m0 40h-20m20 0h20m-20 0v20m-20-20v20m40-40v20m0-20v-20m0 40v20m-161-60h20m-20 0v-20m20 20h21m-21 0v-20m21 20h20m-20 0v-20m20 20h20m-20 0v-20m20 20h20m-20 0v-20m20 20h20m-20 0v-20m20 20h20m-20 0v-20m20 20h20m-20 0v-20m20 20v-20h-20m-141 0h20m-20 0h-20m20 0v-20m20 20h21m-21 0v-20m21 20h20m-20 0v-20m-61 20v-20m81 20h20m-20 0v-20m20 20h20m-20 0v-20m20 20h20m-20 0v-20m20 20h20m-20 0v-20m-121 0h20m-20 0h-20m20 0v-20m20 20h21m-21 0v-20m21 20h20m-20 0v-20m-61 20v-20m81 20h20m-20 0v-20m20 20h20m-20 0v-20m20 20h20m-20 0v-20m20 20v-20h-20m0 0v-20m0 20h-20m0-20h20m-20 0v20m0-20h-20m20 0v-20m20 20v-20m0 20h21m-41 20h-20m-20-20h20m-20 0v20m0-20h-21m21 0v-20m20 20v20m0-20v-20m0 40h-20m0 0h-21m-20 0h20m-20 0h-20m20 0v-20m20 20v-20m-40 20h-20m20 0v-20m-20 20v-20m40 0h20m-20 0h-20m20 0v-20m20 20v-20m-40 20h-20m20 0v-20m-20 20h-20m20 0v-20m-20 20v-20m0 0h20m0 0h20m142 0h20m-20 0v20m0-20h-21m-20 0h20m-20 0h-20m-41 0h21m-21 0h-20m41 0h20m-61 0h-20m121 160h-20m20 0h20m-40 0h-20m120 0h-20m0 0h-20m-20 0h20"/></svg>

<svg width="437" height="483" viewBox="0 0 437 483" fill="none" xmlns="http://www.w3.org/2000/svg">
<path d="M359 361H379V380H359V361Z" fill="#EDEDED"/>
<path d="M339 341H359V361H339V341Z" fill="#EDEDED"/>
<path d="M300 321H320V341H300V321Z" fill="#EDEDED"/>
<path d="M280 301H300V321H280V301Z" fill="#EDEDED"/>
<path d="M300 301H320V321H300V301Z" fill="#EDEDED"/>
<path d="M320 341H339V361H320V341Z" fill="#EDEDED"/>
<path d="M320 321H339V341H320V321Z" fill="#EDEDED"/>
<path d="M300 341H320V361H300V341Z" fill="#EDEDED"/>
<path d="M359 341H379V361H359V341Z" fill="#EDEDED"/>
<path d="M339 361H359V380H339V361Z" fill="#EDEDED"/>
<path d="M359 361H379M359 361V380M359 361V341M359 361H339M379 361V380H359M379 361V341H359M359 380H339V361M339 341H359M339 341V361M339 341H320M339 341V321H320M339 361H320M300 321H320M300 321V341M300 321V301M300 321H280V301H300M320 321V341M320 321V301H300M320 341H300M320 341V361M300 341V361H320" stroke="#EDEDED" stroke-width="5"/>
<path d="M219 441H239V461H219V441Z" fill="#949494"/>
<path d="M198 441H219V461H198V441Z" fill="#949494"/>
<path d="M239 441H279V461H239V441Z" fill="#949494"/>
<path d="M279 441H299V461H279V441Z" fill="#949494"/>
<path d="M239 441H259V461H239V441Z" fill="#949494"/>
<path d="M178 441H198V461H178V441Z" fill="#949494"/>
<path d="M158 441H178V461H158V441Z" fill="#949494"/>
<path d="M58 381H78V402H58V381Z" fill="#949494"/>
<path d="M38 381H58V402H38V381Z" fill="#949494"/>
<path d="M18 381H38V402H18V381Z" fill="#949494"/>
<path d="M18 360H38V381H18V360Z" fill="#949494"/>
<path d="M18 340H38V360H18V340Z" fill="#949494"/>
<path d="M138 422H158V441H138V422Z" fill="#949494"/>
<path d="M138 441H158V461H138V441Z" fill="#949494"/>
<path d="M118 441H138V461H118V441Z" fill="#949494"/>
<path d="M98 441H118V461H98V441Z" fill="#949494"/>
<path d="M98 422H118V441H98V422Z" fill="#949494"/>
<path d="M78 422H98V441H78V422Z" fill="#949494"/>
<path d="M58 422H78V441H58V422Z" fill="#949494"/>
<path d="M118 422H138V441H118V422Z" fill="#949494"/>
<path d="M58 402H78V422H58V402Z" fill="#949494"/>
<path d="M78 402H98V422H78V402Z" fill="#949494"/>
<path d="M38 402H58V422H38V402Z" fill="#949494"/>
<path d="M98 402H118V422H98V402Z" fill="#949494"/>
<path d="M38 321H59V340H38V321Z" fill="#949494"/>
<path d="M319 441H339V461H319V441Z" fill="#949494"/>
<path d="M299 441H319V461H299V441Z" fill="#949494"/>
<path d="M219 441H239M219 441V461M219 441H198M239 441V461M239 441H279M239 441H259V461H239M239 461H219M239 461H279M219 461H198M198 441V461M198 441H178M198 461H178M279 441V461M279 441H299M279 461H299M299 441V461M299 441H319M299 461H319M178 441V461M178 441H158M178 461H158M158 441V461M158 441V422H138M158 441H138M158 461H138M58 381H78V402M58 381V402M58 381H38M78 402H58M78 402V422M78 402H98M58 402H38M58 402V422M38 381V402M38 381H18M38 381V360M38 402H18V381M38 402V422H58M18 381V360M18 360H38M18 360V340H38M38 360V340M38 340H59V321H38V340ZM138 422V441M138 422H118M138 441V461M138 441H118M138 461H118M118 441V461M118 441H98M118 441V422M118 461H98V441M98 441V422M98 441H78M98 422H118M98 422H78M98 422V402M118 422V402H98M78 422V441M78 422H58M78 441H58V422M319 441H339V461H319M319 441V461" stroke="#949494" stroke-width="5"/>
<path d="M98 341H118V361H98V341Z" fill="#D9D9D9"/>
<path d="M118 341H138V361H118V341Z" fill="#D9D9D9"/>
<path d="M98 321H118V341H98V321Z" fill="#D9D9D9"/>
<path d="M39 361H59V381H39V361Z" fill="#D9D9D9"/>
<path d="M39 341H59V361H39V341Z" fill="#D9D9D9"/>
<path d="M118 381H138V401H118V381Z" fill="#D9D9D9"/>
<path d="M138 381H158V401H138V381Z" fill="#D9D9D9"/>
<path d="M118 401H138V421H118V401Z" fill="#D9D9D9"/>
<path d="M78 381H98V401H78V381Z" fill="#D9D9D9"/>
<path d="M98 381H118V401H98V381Z" fill="#D9D9D9"/>
<path d="M78 361H98V381H78V361Z" fill="#D9D9D9"/>
<path d="M59 361H78V381H59V361Z" fill="#D9D9D9"/>
<path d="M59 341H78V361H59V341Z" fill="#D9D9D9"/>
<path d="M59 321H78V341H59V321Z" fill="#D9D9D9"/>
<path d="M78 321H98V341H78V321Z" fill="#D9D9D9"/>
<path d="M59 301H78V321H59V301Z" fill="#D9D9D9"/>
<path d="M78 301H98V321H78V301Z" fill="#D9D9D9"/>
<path d="M78 341H98V361H78V341Z" fill="#D9D9D9"/>
<path d="M98 361H118V381H98V361Z" fill="#D9D9D9"/>
<path d="M138 401H158V421H138V401Z" fill="#D9D9D9"/>
<path d="M178 401H198V421H178V401Z" fill="#D9D9D9"/>
<path d="M198 401H219V421H198V401Z" fill="#D9D9D9"/>
<path d="M158 401H178V421H158V401Z" fill="#D9D9D9"/>
<path d="M219 401H239V421H219V401Z" fill="#D9D9D9"/>
<path d="M239 401H259V421H239V401Z" fill="#D9D9D9"/>
<path d="M259 401H279V421H259V401Z" fill="#D9D9D9"/>
<path d="M198 421H219V441H198V421Z" fill="#D9D9D9"/>
<path d="M178 421H198V441H178V421Z" fill="#D9D9D9"/>
<path d="M158 421H178V441H158V421Z" fill="#D9D9D9"/>
<path d="M379 401H399V421H379V401Z" fill="#D9D9D9"/>
<path d="M359 401H379V421H359V401Z" fill="#D9D9D9"/>
<path d="M399 381H419V401H399V381Z" fill="#D9D9D9"/>
<path d="M399 360H419V381H399V360Z" fill="#D9D9D9"/>
<path d="M399 340H419V360H399V340Z" fill="#D9D9D9"/>
<path d="M379 381H399V401H379V381Z" fill="#D9D9D9"/>
<path d="M379 360H399V381H379V360Z" fill="#D9D9D9"/>
<path d="M379 340H399V360H379V340Z" fill="#D9D9D9"/>
<path d="M359 320H379V340H359V320Z" fill="#D9D9D9"/>
<path d="M340 320H359V340H340V320Z" fill="#D9D9D9"/>
<path d="M359 301H379V320H359V301Z" fill="#D9D9D9"/>
<path d="M340 301H359V320H340V301Z" fill="#D9D9D9"/>
<path d="M320 301H340V320H320V301Z" fill="#D9D9D9"/>
<path d="M359 381H379V401H359V381Z" fill="#D9D9D9"/>
<path d="M299 401H319V421H299V401Z" fill="#D9D9D9"/>
<path d="M279 401H299V421H279V401Z" fill="#D9D9D9"/>
<path d="M319 401H339V421H319V401Z" fill="#D9D9D9"/>
<path d="M178 381H198V401H178V381Z" fill="#D9D9D9"/>
<path d="M198 381H219V401H198V381Z" fill="#D9D9D9"/>
<path d="M158 381H178V401H158V381Z" fill="#D9D9D9"/>
<path d="M219 381H239V401H219V381Z" fill="#D9D9D9"/>
<path d="M239 381H259V401H239V381Z" fill="#D9D9D9"/>
<path d="M259 381H279V401H259V381Z" fill="#D9D9D9"/>
<path d="M299 381H319V401H299V381Z" fill="#D9D9D9"/>
<path d="M279 381H299V401H279V381Z" fill="#D9D9D9"/>
<path d="M319 381H339V401H319V381Z" fill="#D9D9D9"/>
<path d="M178 361H198V381H178V361Z" fill="#D9D9D9"/>
<path d="M198 361H219V381H198V361Z" fill="#D9D9D9"/>
<path d="M158 361H178V381H158V361Z" fill="#D9D9D9"/>
<path d="M219 361H239V381H219V361Z" fill="#D9D9D9"/>
<path d="M239 361H259V381H239V361Z" fill="#D9D9D9"/>
<path d="M259 361H279V381H259V361Z" fill="#D9D9D9"/>
<path d="M299 361H319V381H299V361Z" fill="#D9D9D9"/>
<path d="M279 361H299V381H279V361Z" fill="#D9D9D9"/>
<path d="M319 361H339V381H319V361Z" fill="#D9D9D9"/>
<path d="M178 341H198V361H178V341Z" fill="#D9D9D9"/>
<path d="M198 341H219V361H198V341Z" fill="#D9D9D9"/>
<path d="M158 341H178V361H158V341Z" fill="#D9D9D9"/>
<path d="M219 341H239V361H219V341Z" fill="#D9D9D9"/>
<path d="M239 341H259V361H239V341Z" fill="#D9D9D9"/>
<path d="M279 341H299V361H279V341Z" fill="#D9D9D9"/>
<path d="M279 321H299V341H279V321Z" fill="#D9D9D9"/>
<path d="M259 301H279V321H259V301Z" fill="#D9D9D9"/>
<path d="M219 301H239V321H219V301Z" fill="#D9D9D9"/>
<path d="M239 301H259V321H239V301Z" fill="#D9D9D9"/>
<path d="M259 341H279V361H259V341Z" fill="#D9D9D9"/>
<path d="M219 321H239V341H219V321Z" fill="#D9D9D9"/>
<path d="M239 321H259V341H239V321Z" fill="#D9D9D9"/>
<path d="M259 321H279V341H259V321Z" fill="#D9D9D9"/>
<path d="M339 401H359V421H339V401Z" fill="#D9D9D9"/>
<path d="M339 381H359V401H339V381Z" fill="#D9D9D9"/>
<path d="M138 361H158V381H138V361Z" fill="#D9D9D9"/>
<path d="M138 341H158V361H138V341Z" fill="#D9D9D9"/>
<path d="M178 321H198V341H178V321Z" fill="#D9D9D9"/>
<path d="M198 321H219V341H198V321Z" fill="#D9D9D9"/>
<path d="M158 321H178V341H158V321Z" fill="#D9D9D9"/>
<path d="M138 321H158V341H138V321Z" fill="#D9D9D9"/>
<path d="M178 301H198V321H178V301Z" fill="#D9D9D9"/>
<path d="M198 301H219V321H198V301Z" fill="#D9D9D9"/>
<path d="M158 301H178V321H158V301Z" fill="#D9D9D9"/>
<path d="M138 301H158V321H138V301Z" fill="#D9D9D9"/>
<path d="M98 301H118V321H98V301Z" fill="#D9D9D9"/>
<path d="M118 301H138V321H118V301Z" fill="#D9D9D9"/>
<path d="M98 281H118V301H98V281Z" fill="#D9D9D9"/>
<path d="M118 281H138V301H118V281Z" fill="#D9D9D9"/>
<path d="M300 281H320V301H300V281Z" fill="#D9D9D9"/>
<path d="M320 281H340V301H320V281Z" fill="#D9D9D9"/>
<path d="M259 281H279V301H259V281Z" fill="#D9D9D9"/>
<path d="M279 281H300V301H279V281Z" fill="#D9D9D9"/>
<path d="M198 281H219V301H198V281Z" fill="#D9D9D9"/>
<path d="M219 281H239V301H219V281Z" fill="#D9D9D9"/>
<path d="M239 281H259V301H239V281Z" fill="#D9D9D9"/>
<path d="M178 281H198V301H178V281Z" fill="#D9D9D9"/>
<path d="M138 281H158V301H138V281Z" fill="#D9D9D9"/>
<path d="M158 281H178V301H158V281Z" fill="#D9D9D9"/>
<path d="M118 361H138V381H118V361Z" fill="#D9D9D9"/>
<path d="M118 321H138V341H118V321Z" fill="#D9D9D9"/>
<path d="M379 320H399V340H379V320Z" fill="#D9D9D9"/>
<path d="M259 421H279V441H259V421Z" fill="#D9D9D9"/>
<path d="M219 421H239V441H219V421Z" fill="#D9D9D9"/>
<path d="M239 421H259V441H239V421Z" fill="#D9D9D9"/>
<path d="M359 421H379V441H359V421Z" fill="#D9D9D9"/>
<path d="M339 421H359V441H339V421Z" fill="#D9D9D9"/>
<path d="M279 421H299V441H279V421Z" fill="#D9D9D9"/>
<path d="M299 421H319V441H299V421Z" fill="#D9D9D9"/>
<path d="M319 421H339V441H319V421Z" fill="#D9D9D9"/>
<path d="M98 341H118M98 341V361M98 341V321M98 341H78M118 341V361M118 341H138M118 341V321M118 361H98M118 361H138M118 361V381M98 361H78M98 361V381M138 341V361M138 341H158M138 341V321M138 361H158M138 361V381M98 321H118M98 321H78M98 321V301M118 321V301M118 321H138M39 361H59M39 361V381H59M39 361V341H59M59 361V381M59 361V341M59 361H78M59 381H78M59 341H78M59 341V321M118 381H138M118 381V401M118 381H98M138 381V401M138 381H158M138 401H118M138 401H158M138 401V421M118 401V421H138M118 401H98M158 381V401M158 381H178M158 381V361M158 401V421M158 401H178M138 421H158M78 381H98M78 381V401H98M78 381V361M98 381V401M78 361V341M78 341V321M59 321H78M59 321V301H78M78 321V301M78 301H98M98 301H118M98 301V281H118M158 421H178M158 421V441H178M178 401H198M178 401V421M178 401V381M198 401V421M198 401H219M198 401V381M198 421H178M198 421H219M198 421V441M178 421V441M219 401V421M219 401H239M219 401V381M219 421H239M219 421V441M239 401V421M239 401H259M239 401V381M239 421H259M239 421V441M259 401V421M259 401H279M259 401V381M259 421H279M259 421V441M279 401V421M279 401H299M279 401V381M279 421H299M279 421V441M219 441H198M219 441H239M198 441H178M379 401H399M379 401V421M379 401H359M379 401V381M399 401V421H379M399 401H419V381M399 401V381M379 421H359M379 421V441H359M359 401V421M359 401V381M359 401H339M359 421H339M359 421V441M399 381H419M399 381V360M399 381H379M419 381V360M399 360H419M399 360V340M399 360H379M419 360V340H399M399 340H379M399 340V320H379M379 381V360M379 381H359M379 360V340M379 340V320M379 340H359M359 320H379M359 320V340M359 320H340M359 320V301M379 320V301H359M359 340H340V320M340 320V301M340 320H320V301M359 301H340M340 301H320M340 301V281H320M320 301V281M320 301H300M359 381H339M299 401H319M299 401V421M299 401V381M319 401V421M319 401H339M319 401V381M319 421H299M319 421H339M319 421V441M299 421V441M339 401V421M339 401V381M339 421V441M178 381H198M178 381V361M198 381H219M198 381V361M219 381H239M219 381V361M239 381H259M239 381V361M259 381H279M259 381V361M279 381H299M279 381V361M299 381H319M299 381V361M319 381H339M319 381V361M339 381V361H319M178 361H198M178 361H158M178 361V341M198 361H219M198 361V341M219 361H239M219 361V341M158 361V341M239 361H259M239 361V341M259 361H279M259 361V341M279 361H299M279 361V341M299 361H319M299 361V341M178 341H198M178 341H158M178 341V321M198 341H219M198 341V321M219 341H239M219 341V321M158 341V321M239 341H259M239 341V321M259 341H279M259 341V321M279 341H299M279 341V321M299 341V321H279M279 321V301M279 321H259M259 301H279M259 301V321M259 301H239M259 301V281M279 301V281M279 301H300M259 321H239M219 301H239M219 301V321M219 301H198M219 301V281M239 301V321M239 301V281M239 321H219M219 321H198M178 321H198M178 321H158M178 321V301M198 321V301M158 321H138M158 321V301M138 321V301M178 301H198M178 301H158M178 301V281M198 301V281M158 301H138M158 301V281M138 301H118M138 301V281M118 301V281M118 281H138M138 281H158M300 281H320M300 281V301M300 281H279M259 281H279M259 281H239M198 281H219M198 281H178M219 281H239M178 281H158M279 441H259M279 441H299M259 441H239M359 441H339M339 441H319M299 441H319" stroke="#D9D9D9" stroke-width="5"/>
</svg>
